X:1
T: The Deer's Antlers
T: Caber Feidh
R:Reel
Q: 232
K:C
M:4/4
L:1/8
|:F|c2 ed c2 GB|c2 GF EC CE|Dd d^c d2A^c|d2AG FD DB|
c2ed c2GB|cG AF EC CE|DE FG AB cA|d2AG FD Df|
ec gc ac gc|ec gc ec ce|fd ad bd ad|fg ag fd df|
ec gc ac gc|GA cd ec eg|af ge fd e^c|d2AG FD D:|
